images/ICONOS/CEGID/COMPENSACIONES ICON.svg

<svg width="41" height="50" viewBox="0 0 41 50" fill="none" xmlns="http://www.w3.org/2000/svg">
<path d="M17.4439 49.9987C17.1294 49.9701 16.8137 49.9362 16.4992 49.9154C14.8326 49.8047 13.1508 49.8073 11.5033 49.5625C8.95439 49.1849 6.85366 46.8648 6.36221 44.124C6.16105 43.0004 6.20943 41.8911 6.48316 40.787C6.74544 39.7323 6.98352 38.6699 7.26999 37.6218C7.36675 37.2676 7.28399 37.0541 7.04081 36.8132C6.20689 35.9865 5.39078 35.1415 4.57213 34.2991C3.59561 33.2939 3.47975 32.139 4.30095 31.0076C4.68545 30.479 4.69308 30.0285 4.41553 29.4413C3.96101 28.4791 3.57779 27.4778 3.22002 26.4727C3.02777 25.9323 2.72476 25.655 2.16711 25.5756C0.757708 25.3764 0.0129017 24.4767 0.00526264 23.0158C-0.00110322 21.6331 -0.00237639 20.2491 0.00526264 18.8663C0.0141749 17.4536 0.732244 16.5553 2.09963 16.3469C2.74513 16.2493 3.0456 15.929 3.25695 15.317C3.60961 14.2937 4.04377 13.2963 4.48556 12.3094C4.69563 11.842 4.68417 11.4618 4.39134 11.0412C3.45429 9.68846 3.55105 8.65597 4.69181 7.48806C5.61613 6.54411 6.53664 5.59885 7.46223 4.65879C8.44385 3.66276 9.56552 3.54948 10.6783 4.39839C11.2003 4.79681 11.6421 4.78379 12.2112 4.50386C13.124 4.05336 14.07 3.66666 15.0249 3.31642C15.58 3.11331 15.8906 2.81124 15.9912 2.1993C16.2395 0.679851 17.053 0.00280544 18.5414 0.00150343C19.8782 0.000201422 21.215 -0.00110059 22.5506 0.00150343C23.9065 0.00410745 24.7939 0.742347 24.9913 2.10034C25.0868 2.76437 25.3936 3.1094 26.0175 3.33074C27.0054 3.67968 27.9667 4.11325 28.9152 4.56505C29.4079 4.79941 29.7988 4.77988 30.2393 4.45438C31.473 3.54167 32.5348 3.63802 33.6043 4.7265C34.5515 5.69129 35.4988 6.65478 36.4396 7.62608C37.4111 8.62993 37.5142 9.77569 36.6892 10.9189C36.3187 11.4305 36.3021 11.8693 36.5708 12.4435C37.0291 13.4226 37.4149 14.4382 37.7867 15.4564C37.9751 15.972 38.2603 16.2467 38.8039 16.3287C40.2744 16.5488 40.9925 17.4315 40.9963 18.9627C41.0001 20.3129 41.0027 21.6643 40.9951 23.0145C40.9874 24.4767 40.2401 25.3777 38.8358 25.5782C38.2781 25.6576 37.9764 25.9323 37.7803 26.4727C37.4009 27.5221 36.9795 28.5572 36.5249 29.5754C36.3085 30.0597 36.3098 30.4477 36.6166 30.8865C37.5384 32.2054 37.4416 33.2653 36.3289 34.4058C35.5306 35.2235 34.7412 36.0503 33.9264 36.851C33.6845 37.0893 33.6463 37.3015 33.7303 37.6231C34.0333 38.7845 34.3185 39.9511 34.5859 41.1216C35.304 44.2738 33.7902 47.6785 31.0783 49.0573C30.2189 49.4935 29.3022 49.6524 28.3588 49.7018C26.8501 49.78 25.3401 49.8555 23.8314 49.9362C23.7066 49.9427 23.5831 49.9779 23.4596 50C21.4544 49.9987 19.4492 49.9987 17.4439 49.9987ZM33.2554 35.4761C33.9149 34.8003 34.6101 34.0894 35.3027 33.3785C35.9304 32.734 35.9686 32.4528 35.4542 31.7354C34.8023 30.8266 34.7705 29.9113 35.2531 28.8996C35.6987 27.9687 36.0984 27.0065 36.4205 26.0248C36.7859 24.9116 37.4836 24.297 38.604 24.1291C39.3399 24.0184 39.5589 23.7502 39.5627 22.9924C39.5678 21.6422 39.5678 20.2907 39.5627 18.9405C39.5602 18.158 39.3323 17.8833 38.5786 17.7739C37.4735 17.6138 36.7898 16.9979 36.4269 15.9082C36.1061 14.9421 35.7279 13.9877 35.2823 13.0763C34.7629 12.0152 34.796 11.0621 35.495 10.1129C35.9469 9.49837 35.9075 9.15594 35.3855 8.61951C34.4535 7.66253 33.519 6.70686 32.5845 5.75378C32.0396 5.19783 31.706 5.15746 31.0872 5.6327C30.1744 6.33448 29.2488 6.37615 28.2315 5.85404C27.4116 5.43219 26.5636 5.03638 25.689 4.76296C24.4782 4.38407 23.7499 3.66927 23.5857 2.35554C23.5029 1.69151 23.1986 1.47017 22.5493 1.46887C21.229 1.46496 19.9075 1.46757 18.5872 1.46757C17.7558 1.46757 17.4987 1.66417 17.3802 2.50657C17.2198 3.65364 16.5807 4.31506 15.5303 4.68483C14.6162 5.00643 13.7059 5.36579 12.8478 5.81498C11.7808 6.37354 10.8247 6.35011 9.86853 5.59754C9.31215 5.16007 8.95185 5.21345 8.4464 5.72775C7.53226 6.65738 6.62321 7.59092 5.71162 8.52316C5.06485 9.18588 5.03302 9.44498 5.56775 10.2028C6.18906 11.0816 6.2298 11.9748 5.78037 12.9539C5.32967 13.9369 4.91971 14.9434 4.56067 15.9655C4.19527 17.0058 3.52686 17.606 2.46249 17.7687C1.64384 17.8937 1.44267 18.1437 1.44013 19.0004C1.43758 20.3024 1.43758 21.6045 1.44013 22.9065C1.4414 23.7697 1.62601 24.0015 2.45612 24.1395C3.42755 24.3009 4.11634 24.7957 4.48556 25.7605C4.9248 26.9088 5.40224 28.0403 5.87332 29.1756C6.20179 29.966 6.17251 30.725 5.72563 31.4581C5.60722 31.6508 5.4659 31.8291 5.35131 32.0231C5.1527 32.3604 5.11705 32.7392 5.38824 33.0218C6.18524 33.8564 7.01535 34.6571 7.85565 35.4943C7.9053 35.3537 7.94349 35.2183 7.99951 35.0907C8.57626 33.7535 9.13391 32.4085 9.74631 31.0896C9.90927 30.7394 9.90673 30.5454 9.65591 30.2472C5.39206 25.1681 5.24055 17.3872 9.28796 12.118C9.67119 11.6193 10.0468 11.5113 10.4173 11.7938C10.7814 12.0711 10.7903 12.5164 10.4351 12.9943C8.13065 16.0957 7.34383 19.5759 8.00461 23.3934C8.38529 25.5964 9.31343 27.5507 10.7292 29.2889C11.46 28.2929 12.1717 27.3229 12.905 26.3229C12.2175 25.7891 11.8419 25.0951 11.8954 24.1902C11.9489 23.2801 12.4518 22.6708 13.1826 22.2034C12.1246 20.5225 11.3276 18.7622 10.635 16.9381C9.85071 14.8718 10.6248 14.3392 12.1704 13.8484C12.8605 13.6296 13.5849 13.5255 14.2648 13.3758C14.2954 13.0086 14.2584 12.6024 14.3743 12.2482C14.5907 11.5855 15.184 11.3837 15.7913 11.2405C18.9119 10.5061 22.0286 10.5087 25.1555 11.2196C26.2466 11.4683 26.966 12.0711 26.6973 13.3289C26.6922 13.3536 26.719 13.3849 26.7432 13.4396C26.8386 13.45 26.9494 13.4487 27.0538 13.476C27.9552 13.7182 28.8795 13.8979 29.7466 14.2325C30.6238 14.571 30.8912 15.304 30.5983 16.2219C30.3921 16.8703 30.1871 17.5253 29.9044 18.1398C29.2704 19.5186 28.5893 20.874 27.9234 22.2463C29.4919 23.2541 29.5161 25.2006 28.1182 26.3412C28.8363 27.3177 29.5531 28.2929 30.2762 29.2759C32.6609 26.4779 33.682 22.5107 33.0275 18.6541C31.6181 10.3681 22.7263 5.57411 15.2642 9.09995C14.4329 9.49316 13.6728 10.0426 12.8834 10.527C12.4785 10.7756 12.0584 10.7236 11.8279 10.3785C11.6026 10.04 11.6815 9.64549 12.0355 9.34864C12.1093 9.28744 12.1883 9.23145 12.2659 9.17547C15.7442 6.69253 19.565 5.91784 23.6977 6.85138C29.9057 8.25364 34.5057 14.032 34.647 20.5329C34.7272 24.2345 33.6068 27.5 31.2833 30.3344C31.128 30.5232 31.0516 30.6599 31.1776 30.9282C31.8779 32.4177 32.5501 33.9241 33.2554 35.4761ZM20.4473 48.6055C20.4486 48.547 20.4499 48.4884 20.4499 48.4298C21.993 48.4298 23.536 48.4402 25.0779 48.4246C25.7615 48.4181 26.4478 48.3868 27.1264 48.3139C28.1029 48.2084 29.124 48.2058 30.0381 47.8907C32.3107 47.1069 33.7431 44.2542 33.244 41.7322C33.067 40.8417 32.8098 39.968 32.6214 39.0787C31.6602 34.5582 29.7669 30.5141 26.7559 27.0403C26.6171 26.8802 26.3752 26.7161 26.1804 26.7148C22.394 26.6953 18.6076 26.6979 14.8212 26.7096C14.6569 26.7096 14.443 26.8021 14.3361 26.9258C12.5384 29.0155 11.0704 31.3201 9.98312 33.8785C8.93784 36.3393 8.38656 38.9472 7.81872 41.5434C7.64684 42.326 7.67613 43.2061 7.82382 44.0016C8.26306 46.3765 10.1244 48.0756 12.3932 48.2136C15.0758 48.379 17.7622 48.4793 20.4473 48.6055ZM29.2755 15.61C28.4721 15.1855 27.6548 14.9733 26.7864 14.9212C26.4147 14.8991 26.2364 14.9889 26.118 15.3913C25.6419 17.0188 24.9149 18.5343 24.0275 19.9678C23.9358 20.115 23.8098 20.3285 23.6812 20.3441C23.4087 20.3767 23.0701 20.3845 22.8562 20.2452C22.543 20.0407 22.5506 19.6736 22.7314 19.3298C23.2203 18.4015 23.7767 17.4992 24.1675 16.5292C24.6475 15.3379 24.9862 14.088 25.4051 12.8029C22.0821 11.937 18.9106 11.9357 15.6296 12.7951C15.9428 13.8484 16.1631 14.8692 16.5514 15.817C17.0276 16.981 17.6362 18.089 18.204 19.2127C18.4459 19.6905 18.4344 20.042 18.1085 20.305C17.7418 20.6006 17.2886 20.4834 16.9881 19.9991C16.0829 18.5369 15.3635 16.9862 14.8428 15.3379C14.7919 15.1777 14.6136 14.9486 14.4863 14.9421C13.5187 14.8991 12.6071 15.1374 11.7274 15.6165C12.4021 17.8482 13.3596 19.904 14.6557 21.7906C14.7346 21.9065 14.9421 21.9872 15.0911 21.9886C18.7018 21.999 22.3125 22.0003 25.922 21.9859C26.0786 21.9859 26.2937 21.8727 26.3829 21.7425C27.6471 19.8728 28.5969 17.8443 29.2755 15.61ZM20.4881 25.2384C22.4589 25.2384 24.4298 25.2397 26.4007 25.2371C26.6069 25.2371 26.8183 25.2423 27.0169 25.198C27.4205 25.1095 27.6471 24.836 27.6738 24.4129C27.7006 23.991 27.5134 23.6864 27.1289 23.5392C26.9698 23.4794 26.7864 23.465 26.6146 23.465C22.529 23.4611 18.4446 23.4611 14.359 23.465C14.2024 23.465 14.0369 23.4781 13.8905 23.5301C13.4805 23.6786 13.287 23.9936 13.3252 24.4363C13.3608 24.8595 13.5977 25.1225 14.0038 25.2019C14.1897 25.2384 14.3832 25.2358 14.5729 25.2358C16.5463 25.2384 18.5172 25.2384 20.4881 25.2384Z" fill="#2069C4"/>
<path d="M20.3709 28.4843C24.892 28.4452 28.7471 32.0088 29.0883 36.4396C29.455 41.2075 26.2899 45.3883 21.7612 46.0002C18.162 46.4872 15.2464 45.163 13.2781 42.0577C11.3301 38.9837 11.3925 35.7703 13.2081 32.6143C13.3367 32.3916 13.6117 32.1781 13.851 32.1286C14.042 32.0895 14.4023 32.2575 14.4736 32.4268C14.5742 32.6689 14.578 33.0543 14.452 33.277C13.944 34.1741 13.5735 35.1076 13.399 36.1323C12.6682 40.4328 15.9874 44.5485 20.2691 44.6396C23.8276 44.7151 26.9074 42.2205 27.5554 38.7363C28.2213 35.1584 26.337 31.669 23 30.4047C20.9528 29.63 18.9412 29.8084 17.011 30.8644C16.913 30.9177 16.8201 30.9828 16.722 31.0336C16.2866 31.2602 15.8945 31.1625 15.6907 30.781C15.4998 30.4243 15.6105 30.0207 15.995 29.7785C17.1218 29.0676 18.3479 28.6483 19.6669 28.5194C19.9368 28.4934 20.208 28.4921 20.3709 28.4843Z" fill="#2069C4"/>
<path d="M21.1947 32.7692C21.4519 32.8734 21.695 32.9541 21.9217 33.0674C22.3482 33.2822 22.5124 33.6441 22.3762 34.0152C22.2399 34.3837 21.8835 34.5451 21.4264 34.441C21.3525 34.424 21.28 34.4032 21.1692 34.3733C21.1692 35.0047 21.1552 35.605 21.1819 36.2052C21.187 36.3185 21.3284 36.4812 21.4429 36.5268C22.5213 36.9617 23.1999 37.7142 23.1948 38.9394C23.1897 40.205 22.5595 41.0786 21.4366 41.5994C21.3233 41.6528 21.1959 41.8051 21.1794 41.9262C21.0903 42.5968 20.8929 42.8728 20.4499 42.8715C20.003 42.8702 19.7764 42.5681 19.7331 41.9197C19.7305 41.8728 19.7114 41.8273 19.7203 41.8611C19.1805 41.6177 18.6776 41.4263 18.2078 41.1698C17.7928 40.9432 17.6858 40.4914 17.8959 40.1334C18.1072 39.7727 18.507 39.6946 18.9361 39.9224C19.1691 40.0461 19.4084 40.1607 19.7343 40.3248C19.7343 39.3326 19.756 38.446 19.7127 37.5619C19.7063 37.42 19.4211 37.2702 19.2416 37.1635C17.8908 36.3601 17.5789 34.799 18.5745 33.6129C18.8138 33.3278 19.1831 33.1611 19.4797 32.9228C19.5854 32.8369 19.7089 32.7093 19.7267 32.5856C19.812 31.9763 20.0323 31.7068 20.483 31.7224C20.9248 31.7393 21.1374 32.0244 21.1718 32.6468C21.173 32.6807 21.1832 32.7119 21.1947 32.7692ZM21.2074 38.0632C21.2074 38.7363 21.2074 39.3704 21.2074 40.0357C21.9624 39.3912 21.9611 38.5332 21.2074 38.0632ZM19.6987 35.7508C19.6987 35.2977 19.6987 34.9475 19.6987 34.5061C19.4059 34.9488 19.3282 35.2977 19.6987 35.7508Z" fill="#2069C4"/>
</svg>

<svg width="41" height="50" fill="none" xmlns="http://www.w3.org/2000/svg"><path d="M17.444 49.999c-.315-.029-.63-.063-.945-.084-1.666-.11-3.348-.108-4.996-.352-2.549-.378-4.65-2.698-5.14-5.439a7.91 7.91 0 0 1 .12-3.337c.262-1.055.5-2.117.787-3.165.097-.354.014-.568-.23-.809-.833-.827-1.65-1.672-2.468-2.514-.976-1.005-1.092-2.16-.271-3.291.384-.529.392-.98.115-1.567-.455-.962-.838-1.963-1.196-2.968-.192-.54-.495-.818-1.053-.897-1.41-.2-2.154-1.1-2.162-2.56a409.82 409.82 0 0 1 0-4.15c.01-1.412.727-2.31 2.095-2.52.645-.097.946-.417 1.157-1.029.353-1.023.787-2.02 1.229-3.008.21-.467.198-.847-.095-1.268-.937-1.353-.84-2.385.3-3.553.925-.944 1.846-1.89 2.771-2.83.982-.995 2.104-1.109 3.216-.26.522.399.964.386 1.533.106.913-.45 1.859-.837 2.814-1.188.555-.203.866-.505.966-1.117C16.24.68 17.053.003 18.541.002c1.337-.002 2.674-.003 4.01 0 1.356.002 2.243.74 2.44 2.098.096.664.403 1.01 1.026 1.23.988.35 1.95.783 2.898 1.235.493.234.884.215 1.324-.11 1.234-.913 2.296-.817 3.365.271.947.965 1.895 1.929 2.836 2.9.971 1.004 1.074 2.15.25 3.293-.371.511-.388.95-.12 1.524.46.98.845 1.995 1.217 3.013.188.516.473.79 1.017.873 1.47.22 2.188 1.102 2.192 2.634.004 1.35.007 2.701 0 4.052-.009 1.462-.756 2.363-2.16 2.563-.558.08-.86.354-1.056.895-.38 1.05-.8 2.084-1.255 3.102-.216.485-.215.873.092 1.312.921 1.318.825 2.378-.288 3.519-.798.818-1.588 1.644-2.403 2.445-.242.238-.28.45-.196.772.303 1.162.589 2.328.856 3.499.718 3.152-.796 6.556-3.508 7.935-.86.436-1.776.595-2.72.645-1.508.078-3.018.154-4.527.234-.124.007-.248.042-.371.064l-6.016-.001Zm15.811-14.523 2.048-2.097c.627-.645.666-.926.151-1.644-.652-.908-.684-1.824-.2-2.835.445-.931.844-1.893 1.166-2.875.366-1.113 1.064-1.728 2.184-1.896.736-.11.955-.379.959-1.137.005-1.35.005-2.701 0-4.052-.003-.782-.23-1.057-.984-1.166-1.105-.16-1.79-.776-2.152-1.866-.32-.966-.7-1.92-1.145-2.832-.52-1.06-.486-2.014.213-2.963.452-.615.413-.957-.11-1.493-.931-.957-1.866-1.913-2.8-2.866-.545-.556-.879-.597-1.498-.121-.913.701-1.838.743-2.855.221-.82-.422-1.668-.818-2.543-1.091-1.21-.379-1.94-1.094-2.103-2.407-.083-.664-.387-.886-1.037-.887-1.32-.004-2.642-.001-3.962-.001-.831 0-1.088.196-1.207 1.039-.16 1.147-.8 1.808-1.85 2.178-.914.321-1.824.68-2.682 1.13-1.067.559-2.023.535-2.98-.217-.556-.438-.916-.385-1.422.13-.914.93-1.823 1.863-2.734 2.795-.647.663-.679.922-.144 1.68.621.879.662 1.772.212 2.75-.45.984-.86 1.99-1.22 3.013-.365 1.04-1.033 1.64-2.098 1.803-.818.125-1.02.375-1.022 1.231a997.23 997.23 0 0 0 0 3.907c.001.863.186 1.095 1.016 1.233.972.16 1.66.656 2.03 1.62.439 1.149.916 2.28 1.387 3.416.329.79.3 1.549-.147 2.282-.119.193-.26.371-.375.565-.198.337-.234.716.037.999.797.834 1.627 1.635 2.468 2.472.05-.14.087-.276.144-.403.576-1.337 1.134-2.683 1.746-4.001.163-.35.16-.545-.09-.843-4.264-5.079-4.415-12.86-.368-18.129.383-.499.759-.607 1.13-.324.363.277.372.722.017 1.2-2.304 3.102-3.091 6.582-2.43 10.4.38 2.202 1.308 4.157 2.724 5.895l2.176-2.966c-.688-.534-1.063-1.228-1.01-2.133.054-.91.557-1.52 1.288-1.987-1.058-1.68-1.855-3.44-2.548-5.265-.784-2.066-.01-2.599 1.535-3.09.69-.218 1.415-.323 2.095-.472.03-.367-.007-.774.11-1.128.216-.662.809-.864 1.416-1.007 3.12-.735 6.238-.732 9.364-.021 1.092.248 1.811.851 1.542 2.109-.005.025.022.056.046.11.096.011.206.01.31.037.902.242 1.826.422 2.694.756.877.339 1.144 1.072.851 1.99-.206.648-.41 1.303-.694 1.918-.634 1.379-1.315 2.734-1.98 4.106 1.568 1.008 1.592 2.955.194 4.095l2.158 2.935c2.385-2.798 3.406-6.765 2.752-10.622-1.41-8.286-10.302-13.08-17.764-9.554-.831.393-1.591.943-2.38 1.427-.405.249-.826.197-1.056-.148-.225-.339-.146-.734.208-1.03.073-.062.152-.118.23-.174 3.478-2.482 7.299-3.257 11.432-2.324 6.208 1.403 10.808 7.181 10.949 13.682.08 3.701-1.04 6.967-3.364 9.801-.155.19-.231.326-.105.594.7 1.49 1.372 2.996 2.077 4.548Zm-12.808 13.13a7.91 7.91 0 0 0 .003-.176c1.543 0 3.086.01 4.628-.005.684-.007 1.37-.038 2.048-.111.977-.106 1.998-.108 2.912-.423 2.273-.784 3.705-3.637 3.206-6.159-.177-.89-.434-1.764-.623-2.653-.96-4.52-2.854-8.565-5.865-12.039-.139-.16-.38-.324-.576-.325-3.786-.02-7.572-.017-11.359-.005a.715.715 0 0 0-.485.216c-1.798 2.09-3.266 4.394-4.353 6.953-1.045 2.46-1.596 5.068-2.164 7.664-.172.783-.143 1.663.005 2.459.44 2.374 2.3 4.074 4.57 4.212 2.682.165 5.368.265 8.053.392Zm8.829-32.996a5.98 5.98 0 0 0-2.49-.689c-.371-.022-.55.068-.668.47-.476 1.628-1.203 3.143-2.09 4.577-.092.147-.218.36-.347.376-.272.033-.61.04-.825-.099-.313-.204-.305-.571-.125-.915.49-.928 1.046-1.83 1.436-2.8.48-1.192.82-2.442 1.238-3.727-3.323-.866-6.494-.867-9.775-.008.313 1.053.533 2.074.921 3.022.477 1.164 1.085 2.272 1.653 3.396.242.477.23.829-.096 1.092-.366.296-.82.178-1.12-.306a20.63 20.63 0 0 1-2.145-4.661c-.051-.16-.23-.39-.357-.396-.967-.043-1.879.195-2.759.675.675 2.231 1.633 4.287 2.929 6.174.079.116.286.196.435.198 3.61.01 7.222.011 10.831-.003a.645.645 0 0 0 .46-.244c1.265-1.87 2.215-3.898 2.893-6.132Zm-8.788 9.628c1.97 0 3.942.002 5.913 0 .206 0 .417.004.616-.04.404-.088.63-.362.657-.785.027-.422-.16-.727-.545-.874a1.487 1.487 0 0 0-.514-.074c-4.086-.004-8.17-.004-12.256 0a1.42 1.42 0 0 0-.469.065c-.41.149-.603.464-.565.906.036.424.273.686.679.766.186.036.38.034.569.034 1.973.002 3.944.002 5.915.002Z" fill="#2069C4"/><path d="M20.37 28.484c4.522-.039 8.377 3.525 8.718 7.956.367 4.768-2.798 8.948-7.327 9.56-3.599.487-6.515-.837-8.483-3.942-1.948-3.074-1.886-6.288-.07-9.444.129-.222.404-.436.643-.485.191-.04.551.129.623.298.1.242.104.627-.022.85-.508.897-.879 1.83-1.053 2.855-.73 4.3 2.588 8.416 6.87 8.508 3.559.075 6.638-2.42 7.286-5.904.666-3.578-1.218-7.067-4.555-8.331-2.047-.775-4.059-.597-5.989.46-.098.053-.19.118-.289.169-.435.226-.828.129-1.031-.253-.191-.357-.08-.76.304-1.002a8.31 8.31 0 0 1 3.672-1.26c.27-.026.541-.027.704-.035Z" fill="#2069C4"/><path d="M21.195 32.77c.257.103.5.184.727.297.426.215.59.577.454.948-.136.369-.492.53-.95.426-.073-.017-.146-.038-.257-.068 0 .632-.014 1.232.013 1.832.005.114.146.276.26.322 1.08.435 1.758 1.187 1.753 2.412-.005 1.266-.636 2.14-1.758 2.66-.114.054-.241.206-.258.327-.089.67-.286.947-.73.945-.446 0-.673-.303-.716-.951-.003-.047-.022-.093-.013-.059-.54-.243-1.042-.435-1.512-.691-.415-.227-.522-.679-.312-1.037.211-.36.611-.438 1.04-.21.233.123.472.238.798.402 0-.992.022-1.879-.021-2.763-.007-.142-.292-.292-.471-.398-1.351-.804-1.663-2.365-.668-3.551.24-.285.61-.452.906-.69.105-.086.229-.214.247-.337.085-.61.305-.88.756-.864.442.017.654.302.689.925.001.034.011.065.023.122Zm.012 5.293v1.973c.755-.645.754-1.503 0-1.973ZM19.7 35.751v-1.245c-.293.443-.37.792 0 1.245Z" fill="#2069C4"/></svg>
